packages/icons/svgs/duotone/Source=alarm-disabled.svg

<svg width="24" height="24" viewBox="0 0 24 24" fill="none" xmlns="http://www.w3.org/2000/svg">
<path fill-rule="evenodd" clip-rule="evenodd" d="M21.7071 2.29289C22.0976 2.68342 22.0976 3.31658 21.7071 3.70711L3.70711 21.7071C3.31658 22.0976 2.68342 22.0976 2.29289 21.7071C1.90237 21.3166 1.90237 20.6834 2.29289 20.2929L20.2929 2.29289C20.6834 1.90237 21.3166 1.90237 21.7071 2.29289Z" fill="black"/>
<g opacity="0.55">
<path d="M12 22C10.989 22 10.039 21.966 9.145 21.9C9.33559 22.508 9.7153 23.0392 10.2288 23.4164C10.7423 23.7936 11.3628 23.997 12 23.997C12.6372 23.997 13.2577 23.7936 13.7712 23.4164C14.2847 23.0392 14.6644 22.508 14.855 21.9C13.961 21.966 13.011 22 12 22Z" fill="black"/>
<path d="M12 0C9.87827 0 7.84344 0.842855 6.34315 2.34315C4.84285 3.84344 4 5.87827 4 8V11C4 12.2852 3.44291 13.0783 2.75016 13.8634C2.67006 13.9542 2.58201 14.0511 2.48998 14.1524C2.21136 14.4591 1.8963 14.806 1.65502 15.1438C1.30795 15.6297 1 16.2382 1 17C1 17.8482 1.49396 18.508 2.08816 18.9733C2.68256 19.4387 3.48843 19.8056 4.41697 20.0928C4.43627 20.0988 4.45565 20.1047 4.47512 20.1107L6.11641 18.4694C5.71387 18.3822 5.34386 18.2861 5.00803 18.1822C4.19907 17.9319 3.64869 17.655 3.32121 17.3986C2.99696 17.1447 2.9999 17.0047 3 17.0001C3 16.8119 3.06705 16.6078 3.28248 16.3062C3.4506 16.0709 3.64631 15.8554 3.89388 15.5828C4.00197 15.4637 4.11995 15.3338 4.24984 15.1866C5.05709 14.2717 6 13.0148 6 11V8C6 6.4087 6.63214 4.88258 7.75736 3.75736C8.88258 2.63214 10.4087 2 12 2C13.5913 2 15.1174 2.63214 16.2426 3.75736C17.0619 4.57663 17.6198 5.60844 17.8626 6.72319L19.4642 5.12156C19.0661 4.08921 18.4544 3.14065 17.6569 2.34315C16.1566 0.842855 14.1217 0 12 0Z" fill="black"/>
<path d="M19.98 7.43423L18 9.41421V11C18 13.0148 18.9429 14.2717 19.7502 15.1866C19.88 15.3338 19.998 15.4637 20.1061 15.5827C20.3536 15.8553 20.5494 16.0709 20.7175 16.3062C20.9329 16.6078 21 16.8118 21 17C21.0001 17.0046 21.003 17.1447 20.6788 17.3986C20.3513 17.655 19.8009 17.9319 18.992 18.1822C17.3842 18.6795 14.9931 19 12 19C10.7475 19 9.60043 18.9439 8.57205 18.8422L6.78562 20.6286C8.2859 20.8694 10.0443 21 12 21C15.1069 21 17.7158 20.6705 19.583 20.0928C20.5116 19.8056 21.3174 19.4387 21.9118 18.9733C22.506 18.508 23 17.8482 23 17C23 16.2382 22.6921 15.6297 22.345 15.1438C22.1037 14.806 21.7886 14.4591 21.51 14.1524C21.418 14.0511 21.3299 13.9542 21.2498 13.8634C20.5571 13.0783 20 12.2852 20 11V8C20 7.81061 19.9933 7.62191 19.98 7.43423Z" fill="black"/>
</g>
</svg>

<svg xmlns="http://www.w3.org/2000/svg" width="24" height="24" viewBox="0 0 24 24"><path fill-rule="evenodd" d="M21.707 2.293a1 1 0 0 1 0 1.414l-18 18a1 1 0 0 1-1.414-1.414l18-18a1 1 0 0 1 1.414 0Z" clip-rule="evenodd"/><path d="M12 22a38.81 38.81 0 0 1-2.855-.1 2.992 2.992 0 0 0 5.71 0c-.894.066-1.844.1-2.855.1Zm0-22a8 8 0 0 0-8 8v3c0 1.285-.557 2.078-1.25 2.863-.08.091-.168.188-.26.29-.279.306-.594.653-.835.99C1.308 15.63 1 16.239 1 17c0 .848.494 1.508 1.088 1.973.595.466 1.4.833 2.329 1.12l.058.018 1.641-1.642a13.268 13.268 0 0 1-1.108-.287c-.809-.25-1.36-.527-1.687-.783C2.997 17.145 3 17.005 3 17c0-.188.067-.392.282-.694a8.34 8.34 0 0 1 .612-.723l.356-.396C5.057 14.272 6 13.015 6 11V8a6 6 0 0 1 11.863-1.277l1.601-1.601A7.998 7.998 0 0 0 12 0Zm7.98 7.434L18 9.414V11c0 2.015.943 3.272 1.75 4.187.13.147.248.277.356.396a8 8 0 0 1 .611.723c.216.302.283.506.283.694 0 .005.003.145-.321.399-.328.256-.878.533-1.687.783C17.384 18.68 14.993 19 12 19c-1.252 0-2.4-.056-3.428-.158L6.786 20.63c1.5.24 3.258.371 5.214.371 3.107 0 5.716-.33 7.583-.907.929-.287 1.734-.654 2.329-1.12C22.506 18.508 23 17.848 23 17c0-.762-.308-1.37-.655-1.856-.241-.338-.556-.685-.835-.992-.092-.1-.18-.198-.26-.289C20.557 13.078 20 12.285 20 11V8c0-.19-.007-.378-.02-.566Z" opacity=".55"/></svg>
